X:170
T:When the Cock Crows It Is Day
Z: id:dc-jig-146
M:6/8
L:1/8
K:G Major
D|GAB BAG|d3-d2B|GAB BAG|A3-A2D|!
GAB BAG|cBc efg|dBG AGF|G3-G2:|!
g|gdd gdB|c3-c2g|gdd gdB|A3-A2g|!
gdd gdB|cBc efg|dBG AGF|G3-G2:|!

